build/category/AcuringModernOutline.svg

<svg xmlns="http://www.w3.org/2000/svg" fill="none" viewBox="0 0 24 24" focusable="false"><path d="M0 0H24V24H0z"/><path fill="#74767B" fill-rule="evenodd" d="M8.5 3.3L15.5 3.3C16.4317 3.3 17.1883 4.04951 17.1999 4.97848L16.749 16.7L7.25096 16.7L6.80013 4.97848C6.81166 4.04951 7.5683 3.3 8.5 3.3ZM18.0481 16.75L18.5 5C18.5 3.34315 17.1569 2 15.5 2L8.5 2C6.84315 2 5.5 3.34315 5.5 5L5.95192 16.75C5.97713 17.4055 6.48464 17.9323 7.12492 17.994L7.12488 18.0045L7.12488 20.3C7.12488 21.2389 7.88599 22 8.82488 22L15.1752 22C16.1141 22 16.8752 21.2389 16.8752 20.3L16.8752 18.0045L16.8752 17.9939C17.5154 17.9322 18.0229 17.4055 18.0481 16.75ZM8.42488 18.0045L9.84424 18.0045L9.84424 20.7L8.82488 20.7C8.60396 20.7 8.42488 20.5209 8.42488 20.3L8.42488 18.0045ZM11.1442 20.7L11.1442 18.0045L15.5752 18.0045L15.5752 20.3C15.5752 20.5209 15.3962 20.7 15.1752 20.7L11.1442 20.7ZM11.2716 12.0073C11.2716 11.6483 10.9806 11.3573 10.6216 11.3573L8.92475 11.3573C8.56577 11.3573 8.27475 11.6483 8.27475 12.0073C8.27475 12.3662 8.56577 12.6573 8.92475 12.6573L10.6216 12.6573C10.9806 12.6573 11.2716 12.3662 11.2716 12.0073ZM10.6216 13.815C10.9806 13.815 11.2716 14.106 11.2716 14.465C11.2716 14.824 10.9806 15.115 10.6216 15.115L8.92475 15.115C8.56577 15.115 8.27475 14.824 8.27475 14.465C8.27475 14.106 8.56577 13.815 8.92475 13.815L10.6216 13.815ZM15.7047 12.0073C15.7047 11.6483 15.4137 11.3573 15.0547 11.3573L13.3579 11.3573C12.9989 11.3573 12.7079 11.6483 12.7079 12.0073C12.7079 12.3662 12.9989 12.6573 13.3579 12.6573L15.0547 12.6573C15.4137 12.6573 15.7047 12.3662 15.7047 12.0073ZM15.0547 13.815C15.4137 13.815 15.7047 14.106 15.7047 14.465C15.7047 14.824 15.4137 15.115 15.0547 15.115L13.3579 15.115C12.9989 15.115 12.7079 14.824 12.7079 14.465C12.7079 14.106 12.9989 13.815 13.3579 13.815L15.0547 13.815ZM9.38074 5.82261L14.5975 5.82261L14.4995 8.45689L9.47499 8.41356L9.38074 5.82261ZM8.0816 5.86987C8.05483 5.13386 8.64424 4.52261 9.38074 4.52261L14.5975 4.52261C15.3345 4.52261 15.924 5.13455 15.8966 5.87098L15.7986 8.50526C15.7724 9.20827 15.1917 9.76291 14.4882 9.75684L9.46378 9.71351C8.76857 9.70751 8.20112 9.15559 8.17585 8.46081L8.0816 5.86987Z"/></svg>

<svg xmlns="http://www.w3.org/2000/svg" fill="none" viewBox="0 0 24 24" focusable="false"><path fill="#74767B" fill-rule="evenodd" d="M8.5 3.3h7c.93 0 1.68.74 1.69 1.67l-.45 11.73H7.25L6.8 4.97c.01-.93.76-1.67 1.7-1.67m9.54 13.45L18.5 5c0-1.66-1.35-3-3-3h-7c-1.66 0-3 1.34-3 3l.45 11.75c.02.65.53 1.18 1.17 1.24v2.3c0 .94.76 1.71 1.7 1.71h6.35c.94 0 1.7-.77 1.7-1.71v-2.3c.64-.06 1.15-.59 1.17-1.24M8.42 18h1.42v2.7H8.82c-.22 0-.4-.18-.4-.41zm2.72 2.7V18h4.43v2.29c0 .23-.18.41-.4.41zm.13-8.7c0-.36-.29-.65-.65-.65h-1.7c-.36 0-.65.29-.65.65s.29.65.65.65h1.7c.36 0 .65-.29.65-.65m-.65 1.81c.36 0 .65.29.65.65s-.29.65-.65.65h-1.7c-.36 0-.65-.29-.65-.65s.29-.65.65-.65zM15.7 12c0-.36-.29-.65-.65-.65h-1.7c-.36 0-.65.29-.65.65s.29.65.65.65h1.7c.36 0 .65-.29.65-.65m-.65 1.81c.36 0 .65.29.65.65s-.29.65-.65.65h-1.7c-.36 0-.65-.29-.65-.65s.29-.65.65-.65zM9.38 5.82h5.21l-.1 2.63-5.02-.04zm-1.3.04c-.03-.73.56-1.34 1.3-1.34h5.21c.74 0 1.33.61 1.3 1.35l-.1 2.63c-.02.7-.6 1.26-1.31 1.25l-5.02-.04c-.7-.01-1.26-.56-1.29-1.25z"/></svg>
